X: 4103
T: Bloom Of Youth, The
R: reel
M: 4/4
K: Gmajor
G2 DG EGDE|G2 BG AGE2|G2 DG EGdc|BAdc BGG2|
G2 DG EGDE|G2 BG AGE2|GABG eGdc|BAdc BGG2||
gdd2 edBA|(3Bcd BG AGE2|gdd2 edBA|(3Bcd gd BG G2|
gBfB eBdc|BdBG AGE2|cBcd egfa|(3gfe dc Bd AF||

